X: 29505
T: Nine Mile
R: reel
M: 4/4
K: Dmajor
|:AB|"D" d2 dB d2 dB|ABdd BAFD|"A" e2 ef e2 de|"D" f2 f2 edBA|
d2 dB d2 dB|ABdd BAFD|"A" ABAF FEDE|"D" EDCE D2:|
|:DE|FGFD E2 DE|FGFD E2 DE|FGFE "G" DFED|"A" A,B,DE "D" D2 DE|
FGFD E2 DE|FGFD E2 DE|FGFE "G" DFED|"A" A,B,DE "D" D2:|

